X: 388
T: Nong Tong Paw
%R: jig
Z: 2014 John Chambers <jc:trillian.mit.edu>
B: Preston "Twenty four Country Dances for the Year 1800" p.174 #2
F: http://www.vwml.org/browse/browse-collections-dance-tune-books/browse-prestons1800# 2014-8-10
M: 6/8
L: 1/8
K: D
a |\
f2f f2e | d2d d2c | Bcd e2d | c2B A2a |\
f2f f2e | d2d d2c | Bcd edc | d3 D2 |]
|: a |\
f2a f2a | gfg e2a | f2a f2a | gfg e2a |\
f2f f2e | d2d d2c | Bcd edc | d3 D2 :|
% - - - - - - - - - - - - - - - - - - - - - - - - -
%%begintext align
%% Cast of 2 Cu: the 2d & 3d Cu: follow after &
%% lead up to proper places .| hands 6 quite round :|
%% La Promanade all 6 quite round :|. Le Pousette :|:
%%endtext
% - - - - - - - - - - - - - - - - - - - - - - - - -

%%sep 1 1 500
%%sep 1 1 500
